icons/backerkit.svg

<?xml version="1.0" encoding="UTF-8" standalone="no"?>
<svg width="256px" height="249px" viewBox="0 0 256 249" version="1.1" xmlns="http://www.w3.org/2000/svg" xmlns:xlink="http://www.w3.org/1999/xlink" preserveAspectRatio="xMidYMid">
    <g>
        <path d="M207.506245,218.148743 L119.546588,218.148743 L163.526416,122.454048 L163.567696,122.544288 L163.608016,122.454048 L164.428816,122.454048 L191.931529,182.950992 L205.401605,213.478024 L207.521285,218.148743 L207.506245,218.148743 L207.506245,218.148743 Z M255.447992,241.522497 L170.756174,56.4556653 C170.219854,55.3862255 169.516495,54.4739058 168.371855,53.9350259 L168.371855,38.24447 L208.970564,38.24447 L208.970564,37.0255903 L197.824647,19.282875 L208.970564,1.5404796 L208.970564,0 L160.703697,0 L160.703697,54.1603059 C159.791057,54.7190257 159.119057,55.5279855 158.654097,56.4556653 L112.631389,156.051799 L82.5104373,90.2322964 C81.6848376,88.5858969 80.5856378,87.2076572 77.8345986,87.2076572 L75.0841993,87.2076572 C72.6118799,87.2076572 71.2342803,88.5858969 70.4083605,90.2322964 L11.5475759,217.611783 L9.41733644,222.335622 L0.551418754,241.522497 C-1.10010081,245.094016 1.10309861,248.675775 5.22693753,248.675775 L29.1485313,248.675775 L33.8666101,248.707135 L151.653779,248.675775 L250.776953,248.675775 C254.900792,248.675775 257.099512,245.094336 255.447992,241.522497 L255.447992,241.522497 Z" fill="#2D2E2B"></path>
    </g>
</svg>

<svg xmlns="http://www.w3.org/2000/svg" viewBox="0 0 256 248.707">
  <path fill="#2d2e2b" d="M207.506 218.149h-87.96l43.98-95.695.042.09.04-.09h.82l27.504 60.497 13.47 30.527 2.12 4.67h-.016zm47.942 23.374L170.756 56.456c-.536-1.07-1.24-1.982-2.384-2.521v-15.69h40.599v-1.22l-11.146-17.742L208.97 1.54V0h-48.267v54.16c-.913.559-1.585 1.368-2.05 2.296l-46.023 99.596-30.12-65.82c-.826-1.646-1.925-3.024-4.676-3.024h-2.75c-2.473 0-3.85 1.378-4.677 3.024l-58.86 127.38-2.13 4.724L.55 241.522c-1.651 3.572.552 7.154 4.676 7.154h23.922l4.718.031 117.787-.031h99.123c4.124 0 6.323-3.582 4.671-7.153z"/>
</svg>
